X:27
T:The Fine Companion
C:John Playford, 1651
L:1/8
S:Colin Hume's website,  colinhume.com  - chords can also be printed below the stave.
Q:3/8=120
M:6/8
K:Gm clef=treble
P:A
[||: "Gm"g2b ggd' | "Dm"f>ga "Gm"b>ag | "Bb"d'2c' d'd'c' | "F"d'a2 a2g |
"Dm"aaa a2g | "Dm"f>ga d2a | "Gm"b2g "F"fga \
|1 "Gm"g3 b3 :|2 "Gm"g3 b2 g |]
P:B
[||: "Bb"fdd "F"a2g | "Dm"fde d2a | "Gm"bga "Eb"bga | "Bb"b3 "F"c'3 |
"Gm"d'd'd' "F"f>ga | "Gm"bba bgd' | "Dm"ffg afd \
|1 "Gm"g3 b2 g :|2 "Gm"g3 b3 |]

